X: 29549
T: Noel Flamand
R: waltz
M: 3/4
K: Gmajor
d2|"G"B4 A2|B4 d2|"C"e2 g2 e2|"G"d4 g2|d3 c B2|
"C"A2 B2 G2|"D"A2 B2 G2|"D7"A4 d2|"G"B4 c2|d4 d2|"C"e2 g2 e2|"G"d4 g2|
d3 c B2|"D"A2 B2 A2|"G"G6-|G4 B2||"Em"e4 f2|"C"g3 f e2|"D"d2 e2 f2|
"Em"B4 f2|"C"g3 f e2|"D"f2 e2 d2|"Em"e6|"C"e4 g2|"G"d4 B2|"C"c4 e2|
"D"d3 e f2|"Em"g4 e2|"G"d3 c B2|"C"A2 B2 G2|"D"A2 B2 G2|"D7"A4 d2|"G"B4 c2|
d4 d2|"C"e2 g2 e2|"G"d4 g2|d3 c B2|"D"A2 B2 A2|"G"G6|[B,4G4]||
V:2
DF|G2 D2 F2|G2 D2 B2|c3 B c2|B2 G2 B,2|G,2 B,C D2|
C2 D3 E|F3 G E2|D2 C2 A,2|G,4 A,2|B,4 G,2|C2 E2 G2|B2 c2 B2|
A2 F2 G2|AG FE DC|B,2 DC B,A,|G,2 B,2 D2||[B6G6]|[E6c6]|[F6A6]|
G2 E2 D2|[E6C6]|[D6A6]|[G6B6]|[G6c6]|B2 cB AG|FE DE DC|
B,A, B,C B,A,|G,2 d2 c2|B3 A G2|F2 D2 E2|F3 G FE|D2 C2 B,A,|G,2 D2 F2|
G2-GA BG|c4 c2|B4 B2|B2 A2 G2|F2 G2 D2|B,3 C A,2|[G,4D4]||

